Numix-Light/16/status/indicator-keyboard-Pl.svg

<?xml version="1.0" encoding="UTF-8" standalone="no"?>
<svg
   xmlns:dc="http://purl.org/dc/elements/1.1/"
   xmlns:cc="http://creativecommons.org/ns#"
   xmlns:rdf="http://www.w3.org/1999/02/22-rdf-syntax-ns#"
   xmlns:svg="http://www.w3.org/2000/svg"
   xmlns="http://www.w3.org/2000/svg"
   xmlns:sodipodi="http://sodipodi.sourceforge.net/DTD/sodipodi-0.dtd"
   xmlns:inkscape="http://www.inkscape.org/namespaces/inkscape"
   viewBox="0 0 16 16"
   id="svg2"
   version="1.1"
   inkscape:version="0.91 r13725"
   sodipodi:docname="indicator-keyboard-Pl.svg">
  <metadata
     id="metadata13">
    <rdf:RDF>
      <cc:Work
         rdf:about="">
        <dc:format>image/svg+xml</dc:format>
        <dc:type
           rdf:resource="http://purl.org/dc/dcmitype/StillImage" />
      </cc:Work>
    </rdf:RDF>
  </metadata>
  <defs
     id="defs11" />
  <sodipodi:namedview
     pagecolor="#ffffff"
     bordercolor="#666666"
     borderopacity="1"
     objecttolerance="10"
     gridtolerance="10"
     guidetolerance="10"
     inkscape:pageopacity="0"
     inkscape:pageshadow="2"
     inkscape:window-width="640"
     inkscape:window-height="480"
     id="namedview9"
     showgrid="false"
     inkscape:zoom="14.75"
     inkscape:cx="8"
     inkscape:cy="8"
     inkscape:window-x="65"
     inkscape:window-y="24"
     inkscape:window-maximized="0"
     inkscape:current-layer="svg2" />
  <path
     style="fill:#353535;fill-opacity:1"
     d="M 1.5996094 0 C 0.71320937 2.9605947e-16 0 0.71320937 0 1.5996094 L 0 14.400391 C 2.9605947e-16 15.286791 0.71320937 16 1.5996094 16 L 14.400391 16 C 15.286791 16 16 15.286791 16 14.400391 L 16 1.5996094 C 16 0.71320937 15.286791 0 14.400391 0 L 1.5996094 0 z M 10.591797 4.4667969 L 10.591797 10.318359 C 10.591797 10.462359 10.602953 10.577969 10.626953 10.667969 C 10.656953 10.751969 10.699906 10.821 10.753906 10.875 C 10.807906 10.923 10.876938 10.960375 10.960938 10.984375 C 11.050938 11.008375 11.155391 11.028875 11.275391 11.046875 L 11.193359 11.533203 C 10.995359 11.527203 10.821875 11.499172 10.671875 11.451172 C 10.527875 11.409172 10.404734 11.343906 10.302734 11.253906 C 10.206734 11.157906 10.132125 11.036578 10.078125 10.892578 C 10.030125 10.742578 10.005859 10.557938 10.005859 10.335938 L 10.005859 4.5761719 L 10.591797 4.4667969 z M 6.3007812 5.1601562 C 7.1827812 5.1601562 7.8394844 5.3280625 8.2714844 5.6640625 C 8.7034844 6.0000625 8.9179688 6.4777031 8.9179688 7.0957031 C 8.9179688 7.4497031 8.8564688 7.7519062 8.7304688 8.0039062 C 8.6044687 8.2499063 8.4234531 8.4514219 8.1894531 8.6074219 C 7.9554531 8.7574219 7.6681719 8.8694062 7.3261719 8.9414062 C 6.9901719 9.0074062 6.6095937 9.0390625 6.1835938 9.0390625 L 5.3378906 9.0390625 L 5.3378906 11.451172 L 4.7246094 11.451172 L 4.7246094 5.3320312 C 4.9406094 5.2720312 5.1924687 5.2290781 5.4804688 5.2050781 C 5.7744688 5.1750781 6.0487812 5.1601562 6.3007812 5.1601562 z M 6.3261719 5.6914062 C 6.0981719 5.6914062 5.9041875 5.70075 5.7421875 5.71875 C 5.5861875 5.73075 5.4518906 5.7419063 5.3378906 5.7539062 L 5.3378906 8.5078125 L 6.1113281 8.5078125 C 6.4413281 8.5078125 6.7379531 8.4910781 7.0019531 8.4550781 C 7.2719531 8.4130781 7.4995469 8.3402813 7.6855469 8.2382812 C 7.8775469 8.1302812 8.0249531 7.982875 8.1269531 7.796875 C 8.2289531 7.610875 8.2792969 7.3739375 8.2792969 7.0859375 C 8.2792969 6.8099375 8.223375 6.5823437 8.109375 6.4023438 C 8.001375 6.2223437 7.8539687 6.0824688 7.6679688 5.9804688 C 7.4879688 5.8724688 7.280875 5.7959063 7.046875 5.7539062 C 6.812875 5.7119063 6.5721719 5.6914063 6.3261719 5.6914062 z "
     id="path4" />
</svg>

<svg xmlns="http://www.w3.org/2000/svg" viewBox="0 0 16 16">
 <path d="m 1.6 0 c -0.886 0 -1.6 0.713 -1.6 1.6 l 0 12.801 c 0 0.886 0.713 1.6 1.6 1.6 l 12.801 0 c 0.886 0 1.6 -0.713 1.6 -1.6 l 0 -12.801 c 0 -0.886 -0.713 -1.6 -1.6 -1.6 l -12.801 0 z m 8.992 4.467 l 0 5.852 c 0 0.144 0.011 0.26 0.035 0.35 c 0.03 0.084 0.073 0.153 0.127 0.207 c 0.054 0.048 0.123 0.085 0.207 0.109 c 0.09 0.024 0.194 0.044 0.314 0.063 l -0.082 0.486 c -0.198 -0.006 -0.371 -0.034 -0.521 -0.082 c -0.144 -0.042 -0.267 -0.107 -0.369 -0.197 c -0.096 -0.096 -0.171 -0.217 -0.225 -0.361 c -0.048 -0.15 -0.072 -0.335 -0.072 -0.557 l 0 -5.76 l 0.586 -0.109 z m -4.291 0.693 c 0.882 0 1.539 0.168 1.971 0.504 c 0.432 0.336 0.646 0.814 0.646 1.432 c 0 0.354 -0.062 0.656 -0.188 0.908 c -0.126 0.246 -0.307 0.448 -0.541 0.604 c -0.234 0.15 -0.521 0.262 -0.863 0.334 c -0.336 0.066 -0.717 0.098 -1.143 0.098 l -0.846 0 l 0 2.412 l -0.613 0 l 0 -6.119 c 0.216 -0.06 0.468 -0.103 0.756 -0.127 c 0.294 -0.03 0.568 -0.045 0.82 -0.045 z m 0.025 0.531 c -0.228 0 -0.422 0.009 -0.584 0.027 c -0.156 0.012 -0.29 0.023 -0.404 0.035 l 0 2.754 l 0.773 0 c 0.33 0 0.627 -0.017 0.891 -0.053 c 0.27 -0.042 0.498 -0.115 0.684 -0.217 c 0.192 -0.108 0.339 -0.255 0.441 -0.441 c 0.102 -0.186 0.152 -0.423 0.152 -0.711 c 0 -0.276 -0.056 -0.504 -0.17 -0.684 c -0.108 -0.18 -0.255 -0.32 -0.441 -0.422 c -0.18 -0.108 -0.387 -0.185 -0.621 -0.227 c -0.234 -0.042 -0.475 -0.062 -0.721 -0.063 z" style="fill:#353535;fill-opacity:1"/>
</svg>
